public/logos/7E.svg

<?xml version="1.0" encoding="UTF-8"?>
<svg xmlns="http://www.w3.org/2000/svg" xmlns:xlink="http://www.w3.org/1999/xlink" width="149.73pt" height="59pt" viewBox="0 0 149.73 59" version="1.1">
<defs>
<clipPath id="clip1">
  <path d="M 0 54 L 149.730469 54 L 149.730469 59 L 0 59 Z M 0 54 "/>
</clipPath>
<clipPath id="clip2">
  <path d="M 0 32 L 149.730469 32 L 149.730469 38 L 0 38 Z M 0 32 "/>
</clipPath>
</defs>
<g id="surface1">
<g clip-path="url(#clip1)" clip-rule="nonzero">
<path style=" stroke:none;fill-rule:nonzero;fill:rgb(20.663452%,51.564026%,68.62793%);fill-opacity:1;" d="M 2.855469 59 C 2.6875 58.921875 2.523438 58.8125 2.34375 58.777344 C 0.824219 58.460938 0.132812 57.644531 0.125 56.132812 C 0.121094 55.671875 0.125 55.214844 0.125 54.8125 C 0.5 54.402344 0.835938 54.183594 1.324219 54.542969 C 1.535156 54.882812 1.636719 55.257812 1.546875 55.71875 C 1.421875 56.332031 1.710938 56.832031 2.28125 57.066406 C 2.726562 57.25 3.21875 57.332031 3.699219 57.421875 C 3.953125 57.46875 4.222656 57.429688 4.488281 57.429688 C 30.480469 57.429688 56.476562 57.429688 82.472656 57.429688 C 103.433594 57.433594 124.394531 57.4375 145.355469 57.4375 C 145.878906 57.4375 146.414062 57.441406 146.921875 57.339844 C 147.820312 57.160156 148.132812 56.75 148.175781 55.84375 C 148.191406 55.515625 148.179688 55.1875 148.179688 54.902344 C 148.804688 54.480469 148.804688 54.480469 149.511719 54.804688 C 149.511719 55.515625 149.582031 56.273438 149.492188 57.011719 C 149.371094 58.03125 148.578125 58.460938 147.691406 58.746094 C 147.453125 58.824219 147.222656 58.914062 146.984375 59 C 98.941406 59 50.898438 59 2.855469 59 "/>
</g>
<path style=" stroke:none;fill-rule:nonzero;fill:rgb(20.663452%,51.564026%,68.62793%);fill-opacity:1;" d="M 0 15.953125 C 0.417969 15.691406 0.691406 15.464844 1.003906 15.328125 C 3.949219 14.027344 6.863281 12.664062 9.851562 11.480469 C 12.320312 10.503906 14.847656 9.660156 17.394531 8.90625 C 19.96875 8.144531 22.578125 7.496094 25.203125 6.933594 C 27.472656 6.445312 29.777344 6.097656 32.078125 5.777344 C 33.699219 5.550781 35.339844 5.441406 36.976562 5.339844 C 38.582031 5.238281 40.191406 5.175781 41.796875 5.167969 C 44.554688 5.15625 47.300781 5.394531 50.042969 5.679688 C 55.453125 6.246094 60.6875 7.527344 65.839844 9.226562 C 68.546875 10.121094 71.277344 10.964844 74.082031 11.496094 C 75.464844 11.757812 76.871094 11.875 78.265625 12.066406 C 80.753906 12.40625 83.257812 12.269531 85.75 12.230469 C 87.289062 12.207031 88.824219 12.007812 90.359375 11.882812 C 91.207031 11.8125 92.058594 11.746094 92.90625 11.652344 C 94.660156 11.453125 96.421875 11.261719 98.171875 11.015625 C 99.664062 10.808594 101.148438 10.550781 102.632812 10.289062 C 105.597656 9.761719 108.570312 9.273438 111.519531 8.65625 C 115.882812 7.746094 120.242188 6.820312 124.566406 5.753906 C 130.835938 4.210938 137.070312 2.539062 143.320312 0.917969 C 144.304688 0.664062 145.285156 0.390625 146.269531 0.132812 C 146.949219 -0.046875 146.964844 -0.0429688 147.726562 0.136719 C 147.570312 0.550781 147.207031 0.726562 146.863281 0.890625 C 144.5625 2.011719 142.261719 3.144531 139.9375 4.21875 C 137.941406 5.144531 135.933594 6.042969 133.898438 6.878906 C 129.773438 8.582031 125.636719 10.253906 121.488281 11.902344 C 119.722656 12.605469 117.933594 13.257812 116.128906 13.855469 C 113.203125 14.832031 110.269531 15.78125 107.316406 16.667969 C 104.398438 17.546875 101.464844 18.386719 98.515625 19.144531 C 94.515625 20.171875 90.496094 21.113281 86.480469 22.070312 C 84.570312 22.527344 82.65625 22.984375 80.730469 23.367188 C 78.417969 23.828125 76.09375 24.21875 73.769531 24.621094 C 71.175781 25.074219 68.558594 25.253906 65.925781 25.199219 C 63.660156 25.148438 61.421875 24.851562 59.203125 24.371094 C 54.691406 23.394531 50.398438 21.769531 46.195312 19.914062 C 42.007812 18.066406 37.703125 16.582031 33.273438 15.46875 C 30.382812 14.738281 27.460938 14.132812 24.453125 14.109375 C 23.007812 14.09375 21.5625 13.925781 20.125 13.992188 C 17.832031 14.09375 15.542969 14.28125 13.261719 14.53125 C 10.691406 14.8125 8.128906 15.183594 5.566406 15.546875 C 4.273438 15.734375 2.988281 16.007812 1.699219 16.21875 C 1.195312 16.304688 0.667969 16.441406 0 15.953125 "/>
<g clip-path="url(#clip2)" clip-rule="nonzero">
<path style=" stroke:none;fill-rule:nonzero;fill:rgb(20.663452%,51.564026%,68.62793%);fill-opacity:1;" d="M 1.582031 37.183594 C 1.113281 37.183594 0.804688 37.183594 0.433594 37.183594 C 0.203125 36.21875 0.195312 35.292969 0.40625 34.40625 C 0.574219 33.703125 1.152344 33.246094 1.84375 33.03125 C 2.304688 32.882812 2.800781 32.820312 3.289062 32.777344 C 3.78125 32.730469 4.277344 32.753906 4.769531 32.753906 C 51.59375 32.753906 98.414062 32.753906 145.238281 32.753906 C 145.863281 32.753906 146.492188 32.75 147.113281 32.78125 C 148.539062 32.855469 149.84375 33.816406 149.722656 35.5 C 149.691406 35.949219 149.71875 36.40625 149.71875 36.96875 C 149.246094 37.003906 148.878906 37.03125 148.425781 37.066406 C 148.351562 36.671875 148.269531 36.363281 148.242188 36.054688 C 148.214844 35.730469 148.234375 35.402344 148.234375 35.1875 C 147.839844 34.492188 147.320312 34.28125 146.6875 34.277344 C 146.355469 34.277344 146.027344 34.273438 145.699219 34.273438 C 112.730469 34.273438 79.757812 34.273438 46.785156 34.273438 C 32.574219 34.277344 18.355469 34.277344 4.144531 34.285156 C 3.71875 34.285156 3.28125 34.292969 2.875 34.394531 C 1.988281 34.613281 1.6875 35.03125 1.652344 35.929688 C 1.636719 36.316406 1.609375 36.699219 1.582031 37.183594 "/>
</g>
<path style=" stroke:none;fill-rule:nonzero;fill:rgb(20.663452%,51.564026%,68.62793%);fill-opacity:1;" d="M 23.863281 38.550781 C 24.191406 39.476562 24.222656 40.375 23.867188 41.324219 C 22.910156 41.539062 21.933594 41.761719 20.84375 42.007812 C 20.878906 41.386719 20.90625 40.871094 20.933594 40.355469 C 20.296875 40.132812 12.199219 40.042969 10.15625 40.253906 C 9.78125 41.402344 9.816406 42.644531 9.621094 43.851562 C 9.949219 44.15625 10.328125 44.03125 10.667969 44.035156 C 13.828125 44.046875 16.984375 44.03125 20.144531 44.050781 C 21.0625 44.058594 21.980469 44.152344 22.785156 44.734375 C 23.21875 45.242188 23.4375 45.855469 23.363281 46.539062 C 23.179688 48.199219 23.050781 49.871094 22.742188 51.507812 C 22.386719 53.414062 21.371094 54.21875 19.457031 54.230469 C 15.476562 54.261719 11.496094 54.261719 7.515625 54.234375 C 5.589844 54.222656 4.84375 53.40625 4.871094 51.492188 C 4.875 51.328125 4.863281 51.160156 4.894531 51 C 4.953125 50.679688 5.039062 50.367188 5.125 50.003906 C 6.101562 49.792969 7.078125 49.582031 8.171875 49.34375 C 8.113281 50.027344 8.0625 50.597656 8.015625 51.152344 C 8.742188 51.371094 17.816406 51.449219 19.660156 51.25 C 20.046875 49.984375 20.0625 48.628906 20.320312 47.191406 C 19.832031 47.167969 19.480469 47.136719 19.132812 47.136719 C 15.90625 47.128906 12.683594 47.128906 9.460938 47.117188 C 9.070312 47.113281 8.671875 47.078125 8.292969 46.996094 C 7.011719 46.710938 6.503906 46.117188 6.480469 44.804688 C 6.46875 44.152344 6.550781 43.492188 6.652344 42.847656 C 6.816406 41.78125 7.003906 40.71875 7.226562 39.664062 C 7.484375 38.425781 8.308594 37.738281 9.515625 37.53125 C 10.191406 37.410156 10.882812 37.34375 11.570312 37.34375 C 14.628906 37.324219 17.6875 37.328125 20.746094 37.339844 C 21.230469 37.34375 21.71875 37.441406 22.207031 37.503906 C 22.890625 37.597656 23.453125 37.894531 23.863281 38.550781 "/>
<path style=" stroke:none;fill-rule:nonzero;fill:rgb(20.663452%,51.564026%,68.62793%);fill-opacity:1;" d="M 130.753906 45.121094 C 131.175781 45.144531 131.496094 45.175781 131.8125 45.175781 C 134.042969 45.179688 136.273438 45.1875 138.503906 45.171875 C 139.058594 45.167969 139.609375 45.085938 140.160156 45.03125 C 140.753906 44.96875 141.167969 44.621094 141.277344 44.074219 C 141.464844 43.113281 141.582031 42.140625 141.671875 41.167969 C 141.71875 40.648438 141.410156 40.292969 140.890625 40.195312 C 140.472656 40.113281 140.050781 40.042969 139.628906 40.042969 C 137.234375 40.027344 134.839844 40.03125 132.445312 40.035156 C 132.125 40.039062 131.804688 40.066406 131.425781 40.082031 C 131.089844 41.753906 130.9375 43.394531 130.753906 45.121094 Z M 138.460938 48.007812 C 140.617188 50.101562 142.679688 52.101562 144.855469 54.21875 C 143.078125 54.21875 141.480469 54.21875 139.742188 54.21875 C 137.949219 52.1875 136.085938 50.074219 134.1875 47.925781 C 132.96875 47.925781 131.730469 47.925781 130.394531 47.925781 C 129.925781 49.980469 129.871094 52.082031 129.476562 54.195312 C 128.394531 54.34375 127.296875 54.226562 126.078125 54.269531 C 126.3125 51.335938 126.773438 48.539062 127.125 45.726562 C 127.476562 42.945312 127.882812 40.167969 128.273438 37.332031 C 128.65625 37.332031 128.949219 37.332031 129.238281 37.332031 C 133.480469 37.332031 137.71875 37.320312 141.960938 37.347656 C 142.636719 37.351562 143.324219 37.5 143.984375 37.667969 C 144.773438 37.875 145.214844 38.464844 145.1875 39.269531 C 145.140625 40.578125 145.019531 41.882812 144.894531 43.1875 C 144.832031 43.835938 144.703125 44.480469 144.578125 45.121094 C 144.277344 46.695312 143.269531 47.609375 141.691406 47.722656 C 140.8125 47.785156 139.929688 47.824219 139.046875 47.878906 C 138.898438 47.890625 138.753906 47.941406 138.460938 48.007812 "/>
<path style=" stroke:none;fill-rule:nonzero;fill:rgb(20.663452%,51.564026%,68.62793%);fill-opacity:1;" d="M 103.167969 40.617188 C 103.074219 40.617188 102.980469 40.613281 102.886719 40.613281 C 102.136719 41.757812 101.367188 42.894531 100.640625 44.054688 C 99.902344 45.230469 99.03125 46.332031 98.332031 47.734375 C 100.738281 47.734375 102.96875 47.738281 105.195312 47.726562 C 105.339844 47.726562 105.484375 47.625 105.734375 47.535156 C 104.867188 45.195312 104.015625 42.90625 103.167969 40.617188 Z M 101.824219 37.371094 C 102.972656 37.371094 104.117188 37.371094 105.363281 37.371094 C 107.671875 42.921875 109.953125 48.515625 112.300781 54.234375 C 110.894531 54.234375 109.660156 54.234375 108.316406 54.234375 C 107.863281 53.109375 107.363281 51.875 106.890625 50.695312 C 106.117188 50.464844 97.925781 50.394531 96.398438 50.589844 C 95.625 51.761719 94.820312 52.992188 94.011719 54.21875 C 92.863281 54.21875 91.757812 54.21875 90.523438 54.21875 C 94.324219 48.550781 98.066406 42.972656 101.824219 37.371094 "/>
<path style=" stroke:none;fill-rule:nonzero;fill:rgb(20.663452%,51.564026%,68.62793%);fill-opacity:1;" d="M 70.886719 54.210938 C 69.6875 54.210938 68.613281 54.210938 67.421875 54.210938 C 67.53125 51.832031 68.011719 49.554688 68.269531 47.261719 C 68.53125 44.957031 68.878906 42.664062 69.195312 40.328125 C 68.335938 40.082031 67.515625 40.230469 66.707031 40.207031 C 65.886719 40.175781 65.0625 40.199219 64.238281 40.199219 C 63.425781 40.199219 62.609375 40.199219 61.734375 40.199219 C 61.875 39.195312 62.003906 38.300781 62.132812 37.378906 C 68.316406 37.378906 74.421875 37.378906 80.648438 37.378906 C 80.542969 38.296875 80.445312 39.160156 80.34375 40.066406 C 79.527344 40.332031 78.703125 40.164062 77.898438 40.191406 C 77.046875 40.222656 76.191406 40.199219 75.335938 40.199219 C 74.515625 40.199219 73.699219 40.199219 72.773438 40.199219 C 72.140625 44.902344 71.519531 49.53125 70.886719 54.210938 "/>
<path style=" stroke:none;fill-rule:nonzero;fill:rgb(20.663452%,51.564026%,68.62793%);fill-opacity:1;" d="M 36.507812 43.917969 C 38.800781 41.632812 40.960938 39.476562 43.089844 37.355469 C 44.496094 37.355469 45.808594 37.355469 47.257812 37.355469 C 44.101562 40.417969 41.023438 43.40625 37.792969 46.535156 C 37.25 48.90625 37.167969 51.535156 36.683594 54.175781 C 35.558594 54.40625 34.371094 54.140625 33.117188 54.335938 C 33.449219 51.796875 33.777344 49.28125 34.113281 46.722656 C 31.765625 43.617188 29.410156 40.507812 27.023438 37.351562 C 28.640625 37.351562 30.183594 37.351562 31.785156 37.351562 C 33.335938 39.511719 34.902344 41.683594 36.507812 43.917969 "/>
<path style=" stroke:none;fill-rule:nonzero;fill:rgb(20.663452%,51.564026%,68.62793%);fill-opacity:1;" d="M 51.769531 51.300781 C 55.902344 51.300781 59.871094 51.300781 63.933594 51.300781 C 63.8125 52.292969 63.695312 53.210938 63.585938 54.117188 C 62.839844 54.292969 49.398438 54.351562 47.925781 54.179688 C 47.925781 53.78125 47.882812 53.363281 47.933594 52.957031 C 48.148438 51.371094 48.40625 49.789062 48.621094 48.203125 C 48.796875 46.9375 48.929688 45.667969 49.097656 44.402344 C 49.3125 42.75 49.542969 41.097656 49.769531 39.445312 C 49.859375 38.769531 49.957031 38.09375 50.058594 37.382812 C 51.234375 37.382812 52.339844 37.382812 53.558594 37.382812 C 53.316406 39.703125 52.953125 41.980469 52.636719 44.265625 C 52.3125 46.554688 52.066406 48.859375 51.769531 51.300781 "/>
<path style=" stroke:none;fill-rule:nonzero;fill:rgb(20.663452%,51.564026%,68.62793%);fill-opacity:1;" d="M 118.128906 37.359375 C 119.382812 37.359375 120.460938 37.359375 121.660156 37.359375 C 120.964844 42.992188 120.183594 48.570312 119.441406 54.207031 C 118.265625 54.207031 117.128906 54.207031 115.902344 54.207031 C 116.644531 48.605469 117.382812 43.015625 118.128906 37.359375 "/>
</g>
</svg>

<svg xmlns="http://www.w3.org/2000/svg" width="199.64" height="59pt" viewBox="0 0 149.73 59"><defs><clipPath id="a"><path d="M0 54h149.73v5H0Zm0 0"/></clipPath><clipPath id="b"><path d="M0 32h149.73v6H0Zm0 0"/></clipPath></defs><g clip-path="url(#a)"><path d="M2.855 59c-.167-.078-.332-.187-.511-.223-1.52-.316-2.211-1.132-2.219-2.644-.004-.461 0-.918 0-1.32.375-.41.71-.63 1.2-.27.21.34.312.715.222 1.176-.125.613.164 1.113.734 1.347.446.184.938.266 1.418.356.254.047.524.008.79.008h77.984q31.441.007 62.882.008c.524 0 1.06.003 1.567-.098.898-.18 1.21-.59 1.254-1.496.015-.328.004-.657.004-.942.625-.422.625-.422 1.332-.097 0 .71.07 1.468-.02 2.207-.12 1.02-.914 1.449-1.8 1.734-.239.078-.47.168-.708.254z" style="stroke:none;fill-rule:nonzero;fill:#3583af;fill-opacity:1"/></g><path d="M0 15.953c.418-.262.691-.488 1.004-.625 2.945-1.3 5.86-2.664 8.848-3.848 2.468-.976 4.996-1.82 7.543-2.574 2.574-.761 5.183-1.41 7.808-1.972 2.27-.489 4.574-.836 6.875-1.157 1.621-.226 3.262-.336 4.899-.437a83 83 0 0 1 4.82-.172c2.758-.012 5.504.227 8.246.512 5.41.566 10.645 1.847 15.797 3.547 2.707.894 5.437 1.738 8.242 2.27 1.383.26 2.79.378 4.184.57 2.488.34 4.992.203 7.484.163 1.54-.023 3.074-.222 4.61-.347.847-.07 1.699-.137 2.546-.23 1.754-.2 3.516-.391 5.266-.637 1.492-.207 2.976-.465 4.46-.727 2.966-.527 5.938-1.016 8.888-1.633 4.363-.91 8.722-1.836 13.046-2.902 6.27-1.543 12.504-3.215 18.754-4.836.985-.254 1.965-.527 2.95-.785.68-.18.695-.176 1.457.004-.157.414-.52.59-.864.754-2.3 1.12-4.601 2.254-6.925 3.328a148 148 0 0 1-6.04 2.66 1004 1004 0 0 1-12.41 5.023 97 97 0 0 1-5.36 1.953 304 304 0 0 1-8.812 2.813 223 223 0 0 1-8.8 2.477c-4 1.027-8.02 1.968-12.036 2.925-1.91.457-3.824.914-5.75 1.297-2.312.461-4.636.852-6.96 1.254a40.6 40.6 0 0 1-7.844.578c-2.266-.05-4.504-.347-6.723-.828-4.512-.976-8.805-2.601-13.008-4.457a80.7 80.7 0 0 0-12.922-4.445c-2.89-.73-5.812-1.336-8.82-1.36-1.445-.015-2.89-.183-4.328-.117-2.293.102-4.582.29-6.863.54-2.57.28-5.133.652-7.696 1.015-1.293.187-2.578.46-3.867.672-.504.086-1.031.222-1.699-.266" style="stroke:none;fill-rule:nonzero;fill:#3583af;fill-opacity:1"/><g clip-path="url(#b)"><path d="M1.582 37.184H.434q-.345-1.448-.028-2.778c.168-.703.746-1.16 1.438-1.375.46-.148.957-.21 1.445-.254.492-.047.988-.023 1.48-.023h140.47c.624 0 1.253-.004 1.874.027 1.426.074 2.73 1.035 2.61 2.719-.032.45-.004.906-.004 1.469-.473.035-.84.062-1.293.097-.074-.394-.156-.703-.184-1.011-.027-.325-.008-.653-.008-.867-.394-.696-.914-.907-1.547-.91-.332 0-.66-.005-.988-.005H46.785c-14.21.004-28.43.004-42.64.012-.426 0-.864.008-1.27.11-.887.218-1.187.636-1.223 1.535-.015.386-.043.77-.07 1.254" style="stroke:none;fill-rule:nonzero;fill:#3583af;fill-opacity:1"/></g><path d="M23.863 38.55c.328.927.36 1.825.004 2.774-.957.215-1.933.438-3.023.684.035-.621.062-1.137.09-1.653-.637-.222-8.735-.312-10.778-.101-.375 1.148-.34 2.39-.535 3.598.328.304.707.18 1.047.183 3.16.012 6.316-.004 9.477.016.918.008 1.835.101 2.64.683.434.508.652 1.121.578 1.805-.183 1.66-.312 3.332-.62 4.969-.356 1.906-1.372 2.71-3.286 2.722q-5.97.047-11.941.004c-1.926-.011-2.672-.828-2.645-2.742.004-.164-.008-.332.024-.492.058-.32.144-.633.23-.996.977-.211 1.953-.422 3.047-.66-.059.683-.11 1.254-.156 1.808.726.22 9.8.297 11.644.098.387-1.266.402-2.621.66-4.059-.488-.023-.84-.054-1.187-.054-3.227-.008-6.45-.008-9.672-.02-.39-.004-.79-.039-1.168-.12-1.281-.286-1.79-.88-1.813-2.192-.011-.653.07-1.313.172-1.957a58 58 0 0 1 .575-3.184c.257-1.238 1.082-1.926 2.289-2.133a11.7 11.7 0 0 1 2.054-.187c3.059-.02 6.118-.016 9.176-.004.484.004.973.101 1.461.164.684.094 1.246.39 1.656 1.047M130.754 45.121c.422.024.742.055 1.059.055 2.23.004 4.46.011 6.69-.004.556-.004 1.106-.086 1.657-.14.594-.063 1.008-.41 1.117-.958.188-.96.305-1.933.395-2.906.047-.52-.262-.875-.781-.973-.418-.082-.84-.152-1.262-.152-2.395-.016-4.79-.012-7.184-.008-.32.004-.64.031-1.02.047-.335 1.672-.488 3.313-.671 5.04m7.707 2.887c2.156 2.094 4.219 4.094 6.394 6.21h-5.113c-1.793-2.03-3.656-4.144-5.554-6.292h-3.793c-.47 2.054-.524 4.156-.918 6.27-1.082.148-2.18.03-3.399.074.234-2.934.695-5.73 1.047-8.543.352-2.782.758-5.559 1.148-8.395h.965c4.242 0 8.48-.012 12.723.016.676.004 1.363.152 2.023.32.79.207 1.23.797 1.203 1.602-.046 1.308-.167 2.613-.292 3.917-.063.649-.192 1.293-.317 1.934-.3 1.574-1.308 2.488-2.887 2.602-.879.062-1.761.101-2.644.156-.149.012-.293.062-.586.129M103.168 40.617c-.094 0-.188-.004-.281-.004-.75 1.145-1.52 2.282-2.246 3.442-.739 1.175-1.61 2.277-2.309 3.68 2.406 0 4.637.003 6.863-.008.145 0 .29-.102.54-.192-.868-2.34-1.72-4.629-2.567-6.918m-1.344-3.246h3.54c2.308 5.55 4.59 11.145 6.937 16.863h-3.985c-.453-1.125-.953-2.359-1.425-3.539-.774-.23-8.965-.3-10.493-.105-.773 1.172-1.578 2.402-2.386 3.629h-3.489zM70.887 54.21h-3.465c.11-2.378.59-4.655.848-6.948.261-2.305.609-4.598.925-6.934-.86-.246-1.68-.098-2.488-.121-.82-.031-1.644-.008-2.469-.008h-2.504c.141-1.004.27-1.898.399-2.82h18.515c-.105.918-.203 1.781-.304 2.687-.817.266-1.64.098-2.446.125-.851.032-1.707.008-2.562.008h-2.563c-.632 4.703-1.253 9.332-1.886 14.012M36.508 43.918l6.582-6.563h4.168c-3.156 3.063-6.235 6.051-9.465 9.18-.543 2.371-.625 5-1.11 7.64-1.124.231-2.312-.034-3.566.16.332-2.538.66-5.054.996-7.612-2.347-3.106-4.703-6.215-7.09-9.371h4.762c1.55 2.16 3.117 4.332 4.723 6.566M51.77 51.3h12.164c-.121.993-.239 1.91-.348 2.817-.746.176-14.188.235-15.66.063 0-.399-.043-.817.008-1.223.214-1.586.472-3.168.687-4.754.176-1.266.309-2.535.477-3.8.215-1.653.445-3.305.672-4.958.09-.675.187-1.351.289-2.062h3.5c-.243 2.32-.606 4.597-.922 6.883-.325 2.289-.57 4.593-.867 7.035M118.129 37.36h3.531c-.695 5.632-1.476 11.21-2.219 16.847h-3.539c.743-5.602 1.48-11.191 2.227-16.848" style="stroke:none;fill-rule:nonzero;fill:#3583af;fill-opacity:1"/></svg>
